Newaita-dark/actions/32/kdenlive-hide-video.svg

<svg height="32" viewBox="0 0 32 32" width="32" xmlns="http://www.w3.org/2000/svg"><g fill="#e0e0e0"><path d="m20.507812 22.742188h1.324219c.363281 0 .660157.296874.660157.660156v1.324218c0 .363282-.296876.660157-.660157.660157h-1.324219c-.367187 0-.664062-.296875-.664062-.660157v-1.324218c0-.363282.296875-.660156.664062-.660156zm0 0"/><path d="m20.507812 17.449219h1.324219c.363281 0 .660157.296875.660157.660156v1.324219c0 .367187-.296876.660156-.660157.660156h-1.324219c-.367187 0-.664062-.292969-.664062-.660156v-1.324219c0-.363281.296875-.660156.664062-.660156zm0 0"/><path d="m20.507812 12.15625h1.324219c.363281 0 .660157.296875.660157.664062v1.320313c0 .367187-.296876.664063-.660157.664063h-1.324219c-.367187 0-.664062-.296876-.664062-.664063v-1.320313c0-.367187.296875-.664062.664062-.664062zm0 0"/><path d="m20.507812 6.867188h1.324219c.363281 0 .660157.292968.660157.660156v1.324218c0 .363282-.296876.660157-.660157.660157h-1.324219c-.367187 0-.664062-.296875-.664062-.660157v-1.324218c0-.367188.296875-.660156.664062-.660156zm0 0"/><path d="m7.9375 2.894531c-1.464844 0-2.644531 1.183594-2.644531 2.648438v21.167969c0 1.464843 1.179687 2.644531 2.644531 2.644531h15.878906c1.464844 0 2.644532-1.179688 2.644532-2.644531v-21.167969c0-1.464844-1.179688-2.648438-2.644532-2.648438zm1.324219 2.648438h13.230469c.734374 0 1.324218.589843 1.324218 1.320312v18.523438c0 .734375-.589844 1.324219-1.324218 1.324219h-13.230469c-.734375 0-1.324219-.589844-1.324219-1.324219v-18.523438c0-.730469.589844-1.320312 1.324219-1.320312zm0 0" fill-opacity=".392157"/><path d="m9.921875 22.742188h1.324219c.363281 0 .660156.296874.660156.660156v1.324218c0 .363282-.296875.660157-.660156.660157h-1.324219c-.363281 0-.660156-.296875-.660156-.660157v-1.324218c0-.363282.296875-.660156.660156-.660156zm0 0"/><path d="m9.921875 17.449219h1.324219c.363281 0 .660156.296875.660156.660156v1.324219c0 .367187-.296875.660156-.660156.660156h-1.324219c-.363281 0-.660156-.292969-.660156-.660156v-1.324219c0-.363281.296875-.660156.660156-.660156zm0 0"/><path d="m9.921875 12.15625h1.324219c.363281 0 .660156.296875.660156.664062v1.320313c0 .367187-.296875.664063-.660156.664063h-1.324219c-.363281 0-.660156-.296876-.660156-.664063v-1.320313c0-.367187.296875-.664062.660156-.664062zm0 0"/><path d="m9.921875 6.867188h1.324219c.363281 0 .660156.292968.660156.660156v1.324218c0 .363282-.296875.660157-.660156.660157h-1.324219c-.363281 0-.660156-.296875-.660156-.660157v-1.324218c0-.367188.296875-.660156.660156-.660156zm0 0"/></g></svg>

<svg xmlns="http://www.w3.org/2000/svg" xmlns:xlink="http://www.w3.org/1999/xlink" width="32px" height="32px" viewBox="0 0 32 32" version="1.1">
<g id="surface1">
     <defs>
  <style id="current-color-scheme" type="text/css">
   .ColorScheme-Text { color:#eeeeee; } .ColorScheme-Highlight { color:#424242; }
  </style>
 </defs>
<path style="fill:currentColor" class="ColorScheme-Text" d="M 20.507812 22.742188 L 21.832031 22.742188 C 22.195312 22.742188 22.492188 23.039062 22.492188 23.402344 L 22.492188 24.726562 C 22.492188 25.089844 22.195312 25.386719 21.832031 25.386719 L 20.507812 25.386719 C 20.140625 25.386719 19.84375 25.089844 19.84375 24.726562 L 19.84375 23.402344 C 19.84375 23.039062 20.140625 22.742188 20.507812 22.742188 Z M 20.507812 22.742188 "/>
     <defs>
  <style id="current-color-scheme" type="text/css">
   .ColorScheme-Text { color:#eeeeee; } .ColorScheme-Highlight { color:#424242; }
  </style>
 </defs>
<path style="fill:currentColor" class="ColorScheme-Text" d="M 20.507812 17.449219 L 21.832031 17.449219 C 22.195312 17.449219 22.492188 17.746094 22.492188 18.109375 L 22.492188 19.433594 C 22.492188 19.800781 22.195312 20.09375 21.832031 20.09375 L 20.507812 20.09375 C 20.140625 20.09375 19.84375 19.800781 19.84375 19.433594 L 19.84375 18.109375 C 19.84375 17.746094 20.140625 17.449219 20.507812 17.449219 Z M 20.507812 17.449219 "/>
     <defs>
  <style id="current-color-scheme" type="text/css">
   .ColorScheme-Text { color:#eeeeee; } .ColorScheme-Highlight { color:#424242; }
  </style>
 </defs>
<path style="fill:currentColor" class="ColorScheme-Text" d="M 20.507812 12.15625 L 21.832031 12.15625 C 22.195312 12.15625 22.492188 12.453125 22.492188 12.820312 L 22.492188 14.140625 C 22.492188 14.507812 22.195312 14.804688 21.832031 14.804688 L 20.507812 14.804688 C 20.140625 14.804688 19.84375 14.507812 19.84375 14.140625 L 19.84375 12.820312 C 19.84375 12.453125 20.140625 12.15625 20.507812 12.15625 Z M 20.507812 12.15625 "/>
     <defs>
  <style id="current-color-scheme" type="text/css">
   .ColorScheme-Text { color:#eeeeee; } .ColorScheme-Highlight { color:#424242; }
  </style>
 </defs>
<path style="fill:currentColor" class="ColorScheme-Text" d="M 20.507812 6.867188 L 21.832031 6.867188 C 22.195312 6.867188 22.492188 7.160156 22.492188 7.527344 L 22.492188 8.851562 C 22.492188 9.214844 22.195312 9.511719 21.832031 9.511719 L 20.507812 9.511719 C 20.140625 9.511719 19.84375 9.214844 19.84375 8.851562 L 19.84375 7.527344 C 19.84375 7.160156 20.140625 6.867188 20.507812 6.867188 Z M 20.507812 6.867188 "/>
<path style=" stroke:none;fill-rule:nonzero;fill:rgb(87.843138%,87.843138%,87.843138%);fill-opacity:0.392157;" d="M 7.9375 2.894531 C 6.472656 2.894531 5.292969 4.078125 5.292969 5.542969 L 5.292969 26.710938 C 5.292969 28.175781 6.472656 29.355469 7.9375 29.355469 L 23.816406 29.355469 C 25.28125 29.355469 26.460938 28.175781 26.460938 26.710938 L 26.460938 5.542969 C 26.460938 4.078125 25.28125 2.894531 23.816406 2.894531 Z M 9.261719 5.542969 L 22.492188 5.542969 C 23.226562 5.542969 23.816406 6.132812 23.816406 6.863281 L 23.816406 25.386719 C 23.816406 26.121094 23.226562 26.710938 22.492188 26.710938 L 9.261719 26.710938 C 8.527344 26.710938 7.9375 26.121094 7.9375 25.386719 L 7.9375 6.863281 C 7.9375 6.132812 8.527344 5.542969 9.261719 5.542969 Z M 9.261719 5.542969 "/>
     <defs>
  <style id="current-color-scheme" type="text/css">
   .ColorScheme-Text { color:#eeeeee; } .ColorScheme-Highlight { color:#424242; }
  </style>
 </defs>
<path style="fill:currentColor" class="ColorScheme-Text" d="M 9.921875 22.742188 L 11.246094 22.742188 C 11.609375 22.742188 11.90625 23.039062 11.90625 23.402344 L 11.90625 24.726562 C 11.90625 25.089844 11.609375 25.386719 11.246094 25.386719 L 9.921875 25.386719 C 9.558594 25.386719 9.261719 25.089844 9.261719 24.726562 L 9.261719 23.402344 C 9.261719 23.039062 9.558594 22.742188 9.921875 22.742188 Z M 9.921875 22.742188 "/>
     <defs>
  <style id="current-color-scheme" type="text/css">
   .ColorScheme-Text { color:#eeeeee; } .ColorScheme-Highlight { color:#424242; }
  </style>
 </defs>
<path style="fill:currentColor" class="ColorScheme-Text" d="M 9.921875 17.449219 L 11.246094 17.449219 C 11.609375 17.449219 11.90625 17.746094 11.90625 18.109375 L 11.90625 19.433594 C 11.90625 19.800781 11.609375 20.09375 11.246094 20.09375 L 9.921875 20.09375 C 9.558594 20.09375 9.261719 19.800781 9.261719 19.433594 L 9.261719 18.109375 C 9.261719 17.746094 9.558594 17.449219 9.921875 17.449219 Z M 9.921875 17.449219 "/>
     <defs>
  <style id="current-color-scheme" type="text/css">
   .ColorScheme-Text { color:#eeeeee; } .ColorScheme-Highlight { color:#424242; }
  </style>
 </defs>
<path style="fill:currentColor" class="ColorScheme-Text" d="M 9.921875 12.15625 L 11.246094 12.15625 C 11.609375 12.15625 11.90625 12.453125 11.90625 12.820312 L 11.90625 14.140625 C 11.90625 14.507812 11.609375 14.804688 11.246094 14.804688 L 9.921875 14.804688 C 9.558594 14.804688 9.261719 14.507812 9.261719 14.140625 L 9.261719 12.820312 C 9.261719 12.453125 9.558594 12.15625 9.921875 12.15625 Z M 9.921875 12.15625 "/>
     <defs>
  <style id="current-color-scheme" type="text/css">
   .ColorScheme-Text { color:#eeeeee; } .ColorScheme-Highlight { color:#424242; }
  </style>
 </defs>
<path style="fill:currentColor" class="ColorScheme-Text" d="M 9.921875 6.867188 L 11.246094 6.867188 C 11.609375 6.867188 11.90625 7.160156 11.90625 7.527344 L 11.90625 8.851562 C 11.90625 9.214844 11.609375 9.511719 11.246094 9.511719 L 9.921875 9.511719 C 9.558594 9.511719 9.261719 9.214844 9.261719 8.851562 L 9.261719 7.527344 C 9.261719 7.160156 9.558594 6.867188 9.921875 6.867188 Z M 9.921875 6.867188 "/>
</g>
</svg>
